X: 4
T: Trip to Duro
I: RJ R-89 D reel
M: C|
R: reel
K: D
|:\
"D"D2FD A2FA | defd "G(Bm)"B2Bc |\
[1,3 "G"dBBA "Bm"dBBA | "D"FADE "A7"FEE2 :|\
[2,4 "G"dBBA "D"FAdB | "A"AFGE "D"FDD2 :|
|:\
"D"d2de f2fg | afdf "G"gfed |\
[1,3 "A"cdef "Em"gebe | "G"gebe "A"gfec :|\
[2,4 "A"cdef "G"gbag | "A"fdec "D"d3e :|
"D"fdec "G"d3e | "D"fded "Bm"B2Bc | dBBA "G"dBBA | "D"FADE "A7"FEE2 |
"D"D2FD A2FA | defd "G"B2Bc | dBBA "D"FAdB | "A"AFGE "D"FDD2 |]
